X:1
T:Title
%%score { 1 | ( 2 3 ) }
L:1/8
Q:1/4=108
M:4/4
K:C
V:1 treble nm="Grand Piano"
V:2 bass 
V:3 bass 
V:1
 [EG]2 [EG]2 [EG]2 [_E^F][=EG] | [FA]2 [EG]2 [EG]2 [Ec]2 | c2 B2 B3 B | A2 G2 [CEG]2 [CE]2 | %4
w: Chas.~H.~Gabriel * * * *||||
 [EG]2 [EG]2 [EG]2 [_E^F][=EG] | [FA]2 [EG]2 [EG]2 [Gc]2 | c2 A2 G3 G | A2 B2 [Ec]4 | %8
w: ||||
 [CAc]3 [CGB] [CFA]>[CGB] [CAc]>[CFA] | [CEG]4 [G,CE]2 [CFA]2 | [B,DG]4 [B,D]2 [B,FA]2 | %11
w: |||
 [CEG]4 [CE]2 z2 | [CAc]3 [CGB] [CFA]>[CGB] [CAc]>[CFA] | [CEG]4 [G,CE]2 [CFA]2 | G3 G A2 B2 | %15
w: ||||
 [Ec]6 z2 |] %16
w: |
V:2
 [C,C]2 [C,C]2 [C,C]2 [C,C][C,C] | [C,C]2 [C,C]2 [C,C]2 [C,G,]2 | [G,E]2 [G,G]2 [G,DG]3 [G,DG] | %3
 [G,B,F]2[K:bass] [G,B,E]2 z2 G,2 | [C,C]2 [C,C]2 [C,C]2 [C,C][C,C] | [C,C]2 [C,C]2 [C,C]2 [E,C]2 | %6
 [F,A,F]2 [F,CF]2 [G,CE]3 [G,CE] | [G,B,F]2 [G,F]2[K:bass] [C,G,]4 | F,3 F, F,>F, F,>F, | %9
 C,4 C,2 C,2 | G,4 G,2 G,2 | C,4 C,2 z2 | F,3 F, F,>F, F,>F, | C,4 C,2 C,2 | %14
 [G,CE]3 [G,CE] [G,B,F]2 [G,F]2 | [C,G,]6 z2 |] %16
V:3
 x8 | x8 | x8 | z4[K:bass] C,4 | x8 | x8 | x8 | x4[K:bass] x4 | x8 | x8 | x8 | x8 | x8 | x8 | x8 | %15
 x8 |] %16

